static/assets/img/icons/theme/text/align-auto.svg

<svg height="24" viewBox="0 0 24 24" width="24" xmlns="http://www.w3.org/2000/svg"><g fill="none" fill-rule="evenodd"><path d="m0 0h24v24h-24z" opacity="0"/><g fill="#000"><path d="m9.61764706 5-.88235294 2h-5.73529412c-.55228475 0-1-.44771525-1-1s.44771525-1 1-1zm4.76470584 0h6.6176471c.5522847 0 1 .44771525 1 1s-.4477153 1-1 1h-5.7352941zm-8.29411761 8-.88235294 2h-2.20588235c-.55228475 0-1-.4477153-1-1s.44771525-1 1-1zm11.82352941 0h3.0882353c.5522847 0 1 .4477153 1 1s-.4477153 1-1 1h-2.2058824zm-10.05882352-4-.88235294 2h-3.97058824c-.55228475 0-1-.4477153-1-1 0-.55228475.44771525-1 1-1zm8.29411762 0h4.8529412c.5522847 0 1 .44771525 1 1 0 .5522847-.4477153 1-1 1h-3.9705882zm-11.82352939 8-.88235294 2h-.44117647c-.55228475 0-1-.4477153-1-1s.44771525-1 1-1zm15.35294119 0h1.3235294c.5522847 0 1 .4477153 1 1s-.4477153 1-1 1h-.4411765z" opacity=".3"/><path d="m11.044 5.256h1.962l5.494 13.744h-2.5l-1.284-3.916h-5.526l-1.69 3.916h-2.5zm2.88 7.884-1.962-5.184-1.998 5.184z"/></g></g></svg>

<svg width="24px" height="24px" viewBox="0 0 24 24" version="1.1" xmlns="http://www.w3.org/2000/svg" xmlns:xlink="http://www.w3.org/1999/xlink">
    <title>Icon For Align-auto</title>
    <g stroke="none" stroke-width="1" fill="none" fill-rule="evenodd">
        <rect opacity="0" x="0" y="0" width="24" height="24"></rect>
        <path d="M9.61764706,5 L8.73529412,7 L3,7 C2.44771525,7 2,6.55228475 2,6 C2,5.44771525 2.44771525,5 3,5 L9.61764706,5 Z M14.3823529,5 L21,5 C21.5522847,5 22,5.44771525 22,6 C22,6.55228475 21.5522847,7 21,7 L15.2647059,7 L14.3823529,5 Z M6.08823529,13 L5.20588235,15 L3,15 C2.44771525,15 2,14.5522847 2,14 C2,13.4477153 2.44771525,13 3,13 L6.08823529,13 Z M17.9117647,13 L21,13 C21.5522847,13 22,13.4477153 22,14 C22,14.5522847 21.5522847,15 21,15 L18.7941176,15 L17.9117647,13 Z M7.85294118,9 L6.97058824,11 L3,11 C2.44771525,11 2,10.5522847 2,10 C2,9.44771525 2.44771525,9 3,9 L7.85294118,9 Z M16.1470588,9 L21,9 C21.5522847,9 22,9.44771525 22,10 C22,10.5522847 21.5522847,11 21,11 L17.0294118,11 L16.1470588,9 Z M4.32352941,17 L3.44117647,19 L3,19 C2.44771525,19 2,18.5522847 2,18 C2,17.4477153 2.44771525,17 3,17 L4.32352941,17 Z M19.6764706,17 L21,17 C21.5522847,17 22,17.4477153 22,18 C22,18.5522847 21.5522847,19 21,19 L20.5588235,19 L19.6764706,17 Z" fill="#000000" opacity="0.3"></path>
        <path d="M11.044,5.256 L13.006,5.256 L18.5,19 L16,19 L14.716,15.084 L9.19,15.084 L7.5,19 L5,19 L11.044,5.256 Z M13.924,13.14 L11.962,7.956 L9.964,13.14 L13.924,13.14 Z" fill="#000000"></path>
    </g>
</svg>
